app/images/facebook.svg

<svg height="20" viewBox="0 0 11 20" width="11" xmlns="http://www.w3.org/2000/svg"><path d="m10.998 3.477h-3.141c-.373 0-.786.495-.786 1.152v2.292h3.929l-.594 3.268h-3.336v9.811h-3.707v-9.81h-3.363v-3.27h3.363v-1.921c0-2.759 1.894-4.999 4.494-4.999h3.14v3.477z" fill="#ccc" fill-rule="evenodd"/></svg>

<svg width="11" height="20" viewBox="0 0 11 20" xmlns="http://www.w3.org/2000/svg"><title>facebook</title><path d="M10.998 3.477H7.857c-.373 0-.786.495-.786 1.152v2.292H11l-.594 3.268H7.07V20H3.363v-9.81H0V6.92h3.363V4.999C3.363 2.24 5.257 0 7.857 0h3.14v3.477z" fill="#CCC" fill-rule="evenodd"/></svg>
